X:1
T:Neid hilfft nit allzeit
T:Johannes Jeep
T:Source : Studentengärtlein---Nürnberg---A.Wagenmann---1625. Editor : André Vierendeels (04/04/17).
T:Notes :  Clef : C4 "Fuga perpetua" Text Middle German "Neuer Lustiger Weltliche lieder"
T:Neid hilfft nit allzeit
T:©
T:©
C:Johannes Jeep
Z:©
%%score [ 1 2 3 ]
L:1/8
Q:1/4=121
M:4/4
K:C
V:1 treble-8 nm="Tenor 1" snm="T 1"
V:2 treble-8 nm="Tenor 2" snm="T 2"
V:3 treble-8 nm="Tenor 3" snm="T 3"
V:1
 c2 B4 A2 | ^G2 A4 G2 | A2 E2 G2 F2 | E4 z4 | e4 B2 d2- | d2 c2 B4 | c2 B4 A2 | ^G2 A4 G2 | %8
w: Neid hilfft nit|all- * *|zeit, hillft nit all-|zeit;|Neid hilfft nit|_ all- zeit;|Neid hilfft nit|al- * *|
 A2 E2 G2 F2 | E4 z4 | e4 B2 d2- | d2 c2 B4 | c2 B4 A2 | ^G2 A4 G2 | A2 E2 G2 F2 | E8- | E8- | %17
w: zeit, hilfft nit all-|zeit,|Neid hilfft nit|_ all- zeit;|Neid hilfft nit|all- e- zeit,|hilfft nit all- zeit.|_||
 E8- | E8- | E8 |] %20
w: |||
V:2
 z8 | z8 | c2 B4 A2 | ^G2 A4 G2 | A2 E2 G2 F2 | E4 z4 | e4 B2 d2- | d2 c2 B4 | c2 B4 A2 | %9
w: ||Neid hilfft nit|all- * *|zeit, hilfft nit all-|zeit;|Neid hilfft nit|_ all- zeit;|Neid hilfftt nit|
 ^G2 A4 G2 | A2 E2 G2 F2 | E4 z4 | e4 B2 d2- | d2 c2 B4 | c2 B4 A2 | ^G2 A4 G2 | A2 E2 G2 F2 | %17
w: all- * *|zeit, hillft nit all-|zeit,;|neid hilfft nit|_ all- zeit;|Neid hilfft nit|all- * *|zeit, hilfft nit all-|
 E8- | E8- | E8 |] %20
w: zeit.|_||
V:3
 z8 | z8 | z8 | z8 | c2 B4 A2 | ^G2 A4 G2 | A2 E2 G2 F2 | E4 z4 | e4 B2 d2- | d2 c2 B4 | c2 B4 A2 | %11
w: ||||Neid hilfft nit|all- * *|zeit, hilfft nit all-|zeit;|Neid hilfft nit|_ all- zeit;|Neid hilfft nit|
 ^G2 A4 G2 | A2 E2 G2 F2 | E4 z4 | e4 B2 d2- | d2 c2 B4 | c2 B4 A2 | ^G2 A4 G2 | A2 E2 G2 F2 | %19
w: all- * *|zeit, hilfft nit all-|zeit;|Neid hilfft nit|_ all- zeit;|Neid hilfft nit|all- * *|zeit, hilfft nit all-|
 E8 |] %20
w: zeit.|

